X: 508
T: Aarne Tarvaisen's
R: mazurka
M: 3/4
K: Dminor
|:z2|"Dm" A>B AG FE|D2 d2 d2|"A7" A2 ^c2 c2|"Dm" A2 d2 d2|
"Dm" A>B AG FE|D2 d2 d2|"A7" A2 ^c2 cA|"Dm" d2 d2:|
|:z e|"Dm" fe d2 d^c|"A7" e2 A4|a2 g2 ge|"Dm" af d2 de|
"Dm" fe d2 dc|"Gm" B>A G2 F2|"A7" E2 A2 A^c|"Dm" d2 d2:|

